!!!OTL: Zwolf Variationen in Es, uber die Romanze 'Je suis Lindor' aus der Komodie 'Le Barbier de Seville'
!!!Variation: Variation 12 c2
!!!COM: Mozart
**function	**harm	**kern	**kern
*M3/4	*M3/4	*staff2	*staff1
*Eb:	*Eb:	*clefF4	*clefG2
*tb8	*	*k[b-e-a-]	*k[b-e-a-]
*	*	*M3/4	*M3/4
*	*	*Eb:	*Eb:
=278	=278	=278	=278
*	*	*	*^
2.D	2V	8BBB-	4b-	4r
.	.	8BB-	.	.
.	.	8DD	4.d 4.f	2B-
.	.	8BB-	.	.
.	4V7	8BBB-	.	.
.	.	8BB-	8f 8a-	.
=279	=279	=279	=279	=279
2.D	2.I	8EE-	(8f 8a-	4B-
.	.	8BB-	8e-) 8g	.
.	.	8GG	4.e- 4.g	4B-
.	.	8BB-	.	.
.	.	8EE-	.	4r
.	.	8BB-	8bb-	.
=280	=280	=280	=280	=280
2.D	2V	8BBB-	8bb-	4b-
.	.	8BB-	8dd 8ff	.
.	.	8DD	4.dd 4.ff	2b-
.	.	8BB-	.	.
.	4V7	8BBB-	.	.
.	.	8BB-	8ff 8aa-	.
=281	=281	=281	=281	=281
2.D	2.I	8EE-	8ff 8aa-	4b-
.	.	8BB-	8ee- 8gg	.
.	.	8GG	4.ee- 4.gg	4b-
.	.	8BB-	.	.
.	.	8EE-	.	4r
.	.	8BB-	8b-	.
=	=	=282	=282	=282
2.D	2.V7	4BBB- 4BB-	(8ee-L	4f 4a-
.	.	.	8ddJ)	.
.	.	4BB- 4B-	4dd	4f 4a-
.	.	4r	(8ccL	4r
.	.	.	8b-J)	.
=	=	=283	=283	=283
2.D	2.V7d	4AAA- 4AA-	(8ee-L	4f 4b-
.	.	.	8ddJ)	.
.	.	4AA- 4A-	4dd	4f 4b-
.	.	4r	4r	4r
*	*	*	*v	*v
=	=	=284	=284
2T	2Ib	4G 4e-	(8ee-L
.	.	.	8ddJ
.	.	4r	8ee-L)
.	.	.	8b-'J
4P	4IV	4A- 4e-	(8ccL
.	.	.	8a-J)
=	=	=285	=285
2.D	2C64	4B- 4e-	(8gL
.	.	.	8b-J
.	.	4r	8e-L)
.	.	.	8g'J
.	4V7	4BB- 4F 4A-	(8fL
.	.	.	8dJ)
=	=	=286	=286
2.T	2.I	4E- 4G	(8e-L
.	.	.	8dJ)
.	.	4r	8e-'L
.	.	.	8f'J
.	.	4r	8g'L
.	.	.	8a'J
=	=	=	=
